build/img/decor/section-decor.svg

<svg width="251" height="218" viewBox="0 0 251 218" fill="none" xmlns="http://www.w3.org/2000/svg">
<path d="M232.097 307.489L217.363 299.705C233.872 218.905 171.875 157.883 169.744 155.972C142.836 185.105 114.35 205.498 103.471 212.054C101.624 209.769 97.689 204.863 96.7252 203.516C125.758 187.704 145.403 170.336 158.713 158.521C140.979 166.324 100.139 172.775 81.9363 175.025L79.075 164.09C134.348 160.046 144.812 155.104 156.89 152.061C156.399 151.801 128.263 149.764 77.252 129.883C77.9431 126.758 79.3732 120.219 79.5647 119.064C132.263 142.192 144.26 142.771 158.268 145.983C138.441 134.462 97.9012 90.7958 95.0824 87.2126C98.2795 83.1428 101.345 80.3125 102.921 79.3124C122.582 107.499 157.936 137.693 161.705 140.469C140.537 96.3051 134.084 65.4116 133.239 61.5619C135.741 60.7897 140.949 59.3532 144.065 58.9052C145.885 81.2262 160.56 120.669 167.67 137.6C167.925 98.4709 174.338 70.9711 177.021 57.4684C178.513 57.4189 184.992 59.0617 188.045 59.8892C176.025 101.965 174.037 126.044 174.084 137.847C191.957 102.529 212.942 76.1832 216.969 72.0284C218.226 72.9538 221.735 75.593 225.723 78.7468C206.766 96.7929 187.082 127.612 179.609 140.766C209.487 114.931 240.16 104.435 245.79 102.698C246.811 104.895 249.108 109.895 250.13 112.32C221.344 118.053 188.489 140.309 175.659 150.721C245.12 229.821 230.236 298.13 232.097 307.489Z" fill="white"/>
<path d="M54.6463 102.89L49.5404 100.193C55.2613 72.1932 33.7778 51.0475 33.0392 50.3852C23.715 60.4804 13.8439 67.5474 10.0738 69.8189C9.4338 69.0273 8.07025 67.3273 7.73627 66.8606C17.7967 61.3813 24.6045 55.3628 29.2165 51.2684C23.0713 53.9723 8.91936 56.2078 2.61153 56.9875L1.62 53.1982C20.7737 51.797 24.3997 50.0843 28.585 49.0299C28.4148 48.94 18.6649 48.2339 0.988281 41.3448C1.22777 40.2619 1.72334 37.996 1.7897 37.5956C20.051 45.6101 24.2083 45.8107 29.0626 46.9239C22.1918 42.9313 8.14378 27.7999 7.16701 26.5583C8.27487 25.148 9.33724 24.1672 9.88314 23.8206C16.6965 33.5881 28.9475 44.0511 30.2534 45.0132C22.9182 29.7091 20.6822 19.0036 20.3891 17.6696C21.2562 17.402 23.0611 16.9042 24.1409 16.749C24.7715 24.4838 29.8568 38.1518 32.3206 44.019C32.4087 30.4595 34.631 20.9302 35.5609 16.2511C36.0779 16.234 38.323 16.8032 39.3809 17.09C35.2159 31.6704 34.5269 40.0143 34.543 44.1046C40.7365 31.8657 48.0085 22.7363 49.404 21.2965C49.8393 21.6172 51.0554 22.5318 52.4373 23.6246C45.8683 29.8781 39.0472 40.5579 36.4578 45.1161C46.8112 36.1633 57.4403 32.5264 59.3911 31.9242C59.7448 32.6856 60.5408 34.4183 60.8951 35.2586C50.92 37.2454 39.5347 44.9577 35.089 48.5655C59.159 75.9757 54.0013 99.6466 54.6463 102.89Z" fill="white"/>
<path d="M196.092 49.7468L193.185 48.2107C196.443 32.2655 184.208 20.2234 183.788 19.8462C178.478 25.5953 172.856 29.6198 170.709 30.9134C170.345 30.4626 169.568 29.4944 169.378 29.2287C175.107 26.1083 178.984 22.6809 181.611 20.3492C178.111 21.889 170.052 23.1621 166.46 23.6061L165.895 21.4482C176.803 20.6502 178.868 19.6749 181.251 19.0744C181.154 19.0232 175.602 18.6211 165.535 14.6978C165.672 14.0811 165.954 12.7908 165.992 12.5628C176.391 17.1269 178.759 17.2411 181.523 17.875C177.61 15.6014 169.61 6.98429 169.054 6.27719C169.685 5.47406 170.29 4.91552 170.601 4.71816C174.481 10.2805 181.457 16.2391 182.201 16.7869C178.024 8.07151 176.75 1.97495 176.584 1.21527C177.077 1.06286 178.105 0.779394 178.72 0.690994C179.079 5.09582 181.975 12.8795 183.378 16.2208C183.429 8.4989 184.694 3.07208 185.224 0.407442C185.518 0.397685 186.797 0.72186 187.399 0.88517C185.027 9.18846 184.635 13.9402 184.644 16.2695C188.171 9.29966 192.312 4.10064 193.107 3.28073C193.355 3.46335 194.048 3.98417 194.835 4.60654C191.094 8.16777 187.209 14.2497 185.734 16.8455C191.631 11.7471 197.684 9.67593 198.795 9.33303C198.996 9.76659 199.449 10.7533 199.651 11.2319C193.97 12.3633 187.487 16.7554 184.955 18.8099C198.662 34.4196 195.725 47.8997 196.092 49.7468Z" fill="white"/>
</svg>

<svg width="251" height="218" viewBox="0 0 251 218" fill="none" xmlns="http://www.w3.org/2000/svg"><path d="M232.097 307.489l-14.734-7.784c16.509-80.8-45.488-141.822-47.619-143.733-26.908 29.133-55.394 49.526-66.273 56.082-1.847-2.285-5.782-7.191-6.746-8.538 29.033-15.812 48.678-33.18 61.988-44.995-17.734 7.803-58.574 14.254-76.777 16.504l-2.861-10.935c55.273-4.044 65.737-8.986 77.815-12.029-.491-.26-28.627-2.297-79.638-22.178.691-3.125 2.121-9.664 2.313-10.819 52.698 23.128 64.695 23.707 78.703 26.919-19.827-11.521-60.367-55.187-63.186-58.77 3.198-4.07 6.263-6.9 7.839-7.9 19.661 28.186 55.015 58.38 58.784 61.156-21.168-44.164-27.621-75.057-28.466-78.907 2.502-.772 7.71-2.209 10.826-2.657 1.82 22.321 16.495 61.764 23.605 78.695.255-39.13 6.668-66.629 9.351-80.132 1.492-.05 7.971 1.594 11.024 2.421-12.02 42.076-14.008 66.155-13.961 77.958 17.873-35.318 38.858-61.664 42.885-65.819 1.257.926 4.766 3.565 8.754 6.719-18.957 18.046-38.641 48.865-46.114 62.019 29.878-25.835 60.551-36.331 66.181-38.068 1.021 2.197 3.318 7.197 4.34 9.622-28.786 5.733-61.641 27.989-74.471 38.401 69.461 79.1 54.577 147.409 56.438 156.768zM54.646 102.89l-5.106-2.697c5.721-28-15.762-49.145-16.5-49.808C23.714 60.48 13.843 67.547 10.073 69.82c-.64-.792-2.004-2.492-2.338-2.958 10.06-5.48 16.869-11.498 21.48-15.593-6.145 2.704-20.297 4.94-26.604 5.72l-.992-3.79c19.154-1.401 22.78-3.114 26.965-4.168-.17-.09-9.92-.796-27.597-7.685.24-1.083.735-3.349.802-3.75 18.261 8.015 22.418 8.216 27.273 9.329C22.192 42.93 8.143 27.8 7.167 26.558c1.108-1.41 2.17-2.39 2.716-2.737 6.814 9.767 19.065 20.23 20.37 21.192-7.335-15.304-9.57-26.01-9.864-27.343.867-.268 2.672-.766 3.752-.921.63 7.735 5.716 21.403 8.18 27.27.088-13.56 2.31-23.089 3.24-27.768.517-.017 2.762.552 3.82.839-4.165 14.58-4.854 22.924-4.838 27.015 6.194-12.24 13.465-21.369 14.861-22.808.435.32 1.651 1.235 3.033 2.328-6.569 6.253-13.39 16.933-15.98 21.491 10.354-8.953 20.983-12.59 22.934-13.192.354.762 1.15 2.494 1.504 3.335-9.975 1.986-21.36 9.699-25.806 13.306 24.07 27.41 18.912 51.082 19.557 54.325zm141.446-53.143l-2.907-1.536c3.258-15.945-8.977-27.988-9.397-28.365-5.31 5.75-10.932 9.774-13.079 11.067a69.922 69.922 0 01-1.331-1.684c5.729-3.12 9.606-6.548 12.233-8.88-3.5 1.54-11.559 2.813-15.151 3.257l-.565-2.158c10.908-.798 12.973-1.773 15.356-2.374-.097-.05-5.649-.453-15.716-4.376.137-.617.419-1.907.457-2.135 10.399 4.564 12.767 4.678 15.531 5.312-3.913-2.274-11.913-10.89-12.469-11.598.631-.803 1.236-1.361 1.547-1.559 3.88 5.563 10.856 11.521 11.6 12.069-4.177-8.715-5.451-14.812-5.617-15.572.493-.152 1.521-.436 2.136-.524.359 4.405 3.255 12.189 4.658 15.53.051-7.722 1.316-13.149 1.846-15.814.294-.01 1.573.315 2.175.478-2.372 8.303-2.764 13.055-2.755 15.385 3.527-6.97 7.668-12.17 8.463-12.99.248.183.941.704 1.728 1.327-3.741 3.56-7.626 9.643-9.101 12.239 5.897-5.099 11.95-7.17 13.061-7.513.201.434.654 1.42.856 1.899-5.681 1.131-12.164 5.523-14.696 7.578 13.707 15.61 10.77 29.09 11.137 30.937z" fill="#fff"/></svg>
